source/images/icons/icon-utility/social-facebook.svg

<?xml version="1.0" encoding="UTF-8"?>
<svg width="24px" height="24px" viewBox="0 0 24 24" version="1.1" xmlns="http://www.w3.org/2000/svg" xmlns:xlink="http://www.w3.org/1999/xlink">
    <!-- Generator: Sketch 55.2 (78181) - https://sketchapp.com -->
    <title>Icons/24px/Social-Facebook</title>
    <desc>Created with Sketch.</desc>
    <g id="Icons/24px/Social-Facebook" stroke="none" stroke-width="1" fill="none" fill-rule="evenodd">
        <path d="M15.8083333,18.1333333 L15.8083333,14.2666667 L18.4166667,14.2666667 L18.8055556,11.2388889 L15.8083333,11.2388889 L15.8083333,9.31111111 C15.8083333,8.43611111 16.0527778,7.83888889 17.3055556,7.83888889 L18.8944444,7.83888889 L18.8944444,7.83333333 L18.9,7.83333333 L18.9,5.14444444 C18.8981482,5.14424843 18.8962963,5.14405265 18.8944444,5.14385712 L18.8944444,5.13888889 C18.1212465,5.05704551 17.3441808,5.0171722 16.5666667,5.01935256 C14.2611111,5.01935256 12.6777778,6.42777778 12.6777778,9.01111111 L12.6777778,11.2333333 L10.0861111,11.2333333 L10.0861111,11.2388889 L10.0861111,14.2611111 L12.6833333,14.2611111 L12.6833333,14.2666667 L12.6833333,22 L3.11111111,22 C2.49746139,22 2,21.5025386 2,20.8888889 L2,3.11111111 C2,2.49746139 2.49746139,2 3.11111111,2 L20.8888889,2 C21.5025386,2 22,2.49746139 22,3.11111111 L22,20.8888889 C22,21.5025386 21.5025386,22 20.8888889,22 L15.8083333,22 L15.8083333,18.1333333 Z" id="Icon" fill="#ADB5BD"></path>
    </g>
</svg>

<svg width="24" height="24">
    <title>
        Icons/24px/Social-Facebook
    </title>
    <path d="M15.808 18.133v-3.866h2.609l.389-3.028h-2.998V9.31c0-.875.245-1.472 1.498-1.472h1.588v-.006h.006V5.144h-.006v-.005a21.54 21.54 0 0 0-2.327-.12c-2.306 0-3.89 1.409-3.89 3.992v2.222h-2.59V14.261h2.596V22H3.111A1.111 1.111 0 0 1 2 20.889V3.11C2 2.497 2.497 2 3.111 2H20.89C21.503 2 22 2.497 22 3.111V20.89c0 .614-.497 1.111-1.111 1.111h-5.08v-3.867z" fill="#ADB5BD" fill-rule="evenodd"/>
</svg>
